X: 7626
T:Polska
O:Sweden
A:Orsa
R:Polska
M:3/4
K:Am
E|A>B c2 c>d| cB/A/ G3E| D<E F>E D>C| B,D GF EE| \
A>B c2 c>d| cB/c/ d3c|
B>A GA BG|1 A2 E3 :|2 A2 A4 |: \
e>c A>E Ac | e<g f>e d2-|
de fg ab| ag ed cd |\
e>c A>E Ac | e<g f>e d2-|dc Bc dB | c2 A4 :|
